src/assets/outline/Nebulas.svg

<svg width="24" height="24" viewBox="0 0 24 24"  xmlns="http://www.w3.org/2000/svg">
<path d="M9.50001 13.9993C9.33001 13.9993 9.15002 13.9393 9.01002 13.8193C8.78002 13.6193 8.69001 13.3093 8.78001 13.0293L11.28 5.02933C11.37 4.72933 11.64 4.51933 11.95 4.50933C12.27 4.48933 12.55 4.66933 12.68 4.94933L15.18 10.4493C15.35 10.8193 15.19 11.2493 14.83 11.4293L9.82999 13.9293C9.72999 13.9693 9.61001 13.9993 9.50001 13.9993ZM12.13 7.34934L10.74 11.7893L13.52 10.3993L12.13 7.34934Z" />
<path d="M13.5002 15.4999C13.4202 15.4999 13.3402 15.4899 13.2602 15.4599L5.76022 12.9599C5.47022 12.8599 5.27021 12.5999 5.25021 12.2999C5.23021 11.9999 5.39022 11.7099 5.66022 11.5799L9.66022 9.57994C10.0302 9.39994 10.4802 9.54994 10.6702 9.91994C10.8602 10.2899 10.7102 10.7399 10.3302 10.9299L7.95023 12.1199L13.4202 13.9399L16.1402 12.4299L13.8502 11.6699C13.4602 11.5399 13.2402 11.1199 13.3702 10.7199C13.5002 10.3299 13.9202 10.1099 14.3202 10.2399L18.2402 11.5299C18.5202 11.6199 18.7202 11.8799 18.7502 12.1699C18.7802 12.4699 18.6302 12.7499 18.3702 12.8999L13.8702 15.3999C13.7502 15.4699 13.6302 15.4999 13.5002 15.4999Z" />
<path d="M11.9998 18.9999C11.7198 18.9999 11.4698 18.8499 11.3398 18.5999L8.83979 13.9199C8.63979 13.5499 8.77979 13.0998 9.14979 12.8998C9.51979 12.6998 9.96981 12.8399 10.1698 13.2099L11.8498 16.3499L12.2998 14.9999C12.4298 14.6099 12.8598 14.3999 13.2498 14.5299C13.6398 14.6599 13.8498 15.0898 13.7198 15.4798L12.7198 18.4798C12.6298 18.7598 12.3698 18.9599 12.0698 18.9899C12.0398 18.9999 12.0198 18.9999 11.9998 18.9999Z" />
<path d="M12 22.75C6.07 22.75 1.25 17.93 1.25 12C1.25 6.07 6.07 1.25 12 1.25C17.93 1.25 22.75 6.07 22.75 12C22.75 17.93 17.93 22.75 12 22.75ZM12 2.75C6.9 2.75 2.75 6.9 2.75 12C2.75 17.1 6.9 21.25 12 21.25C17.1 21.25 21.25 17.1 21.25 12C21.25 6.9 17.1 2.75 12 2.75Z" />
</svg>

<?xml version="1.0" encoding="UTF-8"?>
<svg width="24" height="24" viewBox="0 0 24 24" xmlns="http://www.w3.org/2000/svg">
 <path d="m9.5 13.999c-0.17 0-0.34999-0.06-0.48999-0.18-0.23-0.2-0.32001-0.51-0.23001-0.79l2.5-8c0.09-0.3 0.36-0.51 0.67-0.52 0.32-0.02 0.6 0.16 0.73 0.44l2.5 5.5c0.17 0.37 0.01 0.8-0.35 0.98l-5 2.5c-0.1 0.04-0.21998 0.07-0.32998 0.07zm2.63-6.65-1.39 4.44 2.78-1.39-1.39-3.05z"/>
 <path d="m13.5 15.5c-0.08 0-0.16-0.01-0.24-0.04l-7.5-2.5c-0.29-0.1-0.49001-0.36-0.51001-0.66s0.14001-0.59 0.41001-0.72l4-2c0.36998-0.18 0.81998-0.03 1.01 0.34 0.19 0.36996 0.04 0.81996-0.34 1.01l-2.38 1.19 5.47 1.82 2.72-1.51-2.29-0.76c-0.39-0.13-0.61-0.55-0.48-0.95 0.13-0.39 0.55-0.61 0.95-0.48l3.92 1.29c0.28 0.09 0.48 0.35 0.51 0.64 0.03 0.3-0.12 0.58-0.38 0.73l-4.5 2.5c-0.12 0.07-0.24 0.1-0.37 0.1z"/>
 <path d="m12 19c-0.28 0-0.53-0.15-0.66-0.4l-2.5-4.68c-0.2-0.37-0.06-0.8201 0.31-1.0201s0.82002-0.0599 1.02 0.3101l1.68 3.14 0.45-1.35c0.13-0.39 0.56-0.6 0.95-0.47s0.6 0.5599 0.47 0.9499l-1 3c-0.09 0.28-0.35 0.4801-0.65 0.5101-0.03 0.01-0.05 0.01-0.07 0.01z"/>
 <path d="m12 22.75c-5.93 0-10.75-4.82-10.75-10.75s4.82-10.75 10.75-10.75 10.75 4.82 10.75 10.75-4.82 10.75-10.75 10.75zm0-20c-5.1 0-9.25 4.15-9.25 9.25s4.15 9.25 9.25 9.25 9.25-4.15 9.25-9.25-4.15-9.25-9.25-9.25z"/>
</svg>
